projects/flag-game/flags/Ethiopia.svg

<svg viewBox="0 0 1000 500" xmlns="http://www.w3.org/2000/svg"><path d="m0 0h1000v500h-1000z" fill="#da121a"/><g fill-rule="evenodd"><path d="m0 0h1000v333.332031h-1000zm0 0" fill="#fcdd09"/><path d="m0 0h1000v166.667969h-1000zm0 0" fill="#078930"/><path d="m666.667969 250c0 92.050781-74.617188 166.667969-166.667969 166.667969s-166.667969-74.617188-166.667969-166.667969 74.617188-166.667969 166.667969-166.667969 166.667969 74.617188 166.667969 166.667969zm0 0" fill="#0f47af"/><path d="m373.195312 208.28125h96.871094l21.902344-67.414062 5.839844 17.980468-31.828125 97.960938-9.453125-6.867188 9.929687-30.554687h-77.972656zm48.433594 149.066406 29.933594-92.128906-57.339844-41.664062h18.898438l83.335937 60.546874-9.453125 6.863282-25.988281-18.878906-24.09375 74.15625zm156.742188 0-78.371094-56.9375-57.34375 41.664063 5.84375-17.976563 83.332031-60.546875 3.609375 11.113281-25.988281 18.878907 63.078125 45.828125zm48.433594-149.066406-78.367188 56.9375 21.902344 67.410156-15.292969-11.109375-31.828125-97.964843h11.679688l9.925781 30.554687 63.082031-45.828125zm-126.804688-92.132812 29.933594 92.132812h70.878906l-15.289062 11.105469h-103.003907l3.609375-11.105469h32.125l-24.097656-74.152344zm0 0" fill="#fcdd09"/><path d="m500 311.113281v72.21875zm-58.121094-42.230469-68.683594 22.320313zm22.199219-68.320312-42.445313-58.433594zm71.84375 0 42.449219-58.433594zm22.199219 68.320312 68.683594 22.320313zm0 0"/></g><path d="m500 311.113281v72.21875" fill="none" stroke="#fcdd09" stroke-width="5.555554"/><path d="m441.878906 268.882812-68.683594 22.320313" fill="none" stroke="#fcdd09" stroke-width="5.555554"/><path d="m464.078125 200.5625-42.445313-58.433594" fill="none" stroke="#fcdd09" stroke-width="5.555554"/><path d="m535.921875 200.5625 42.449219-58.433594" fill="none" stroke="#fcdd09" stroke-width="5.555554"/><path d="m558.121094 268.882812 68.683594 22.320313zm0 0" fill="none" stroke="#fcdd09" stroke-width="5.555554"/></svg>

<?xml version="1.0" encoding="UTF-8"?>
<svg xmlns="http://www.w3.org/2000/svg" xmlns:xlink="http://www.w3.org/1999/xlink" viewBox="0 0 1000 500" version="1.1">
<g id="surface414">
<rect x="0" y="0" width="1000" height="500" style="fill:rgb(85.488892%,7.058716%,10.195923%);fill-opacity:1;stroke:none;"/>
<path style=" stroke:none;fill-rule:evenodd;fill:rgb(98.822021%,86.665344%,3.529358%);fill-opacity:1;" d="M 0 0 L 1000 0 L 1000 333.332031 L 0 333.332031 Z M 0 0 "/>
<path style=" stroke:none;fill-rule:evenodd;fill:rgb(2.745056%,53.72467%,18.823242%);fill-opacity:1;" d="M 0 0 L 1000 0 L 1000 166.667969 L 0 166.667969 Z M 0 0 "/>
<path style=" stroke:none;fill-rule:evenodd;fill:rgb(5.882263%,27.842712%,68.626404%);fill-opacity:1;" d="M 666.667969 250 C 666.667969 342.050781 592.050781 416.667969 500 416.667969 C 407.949219 416.667969 333.332031 342.050781 333.332031 250 C 333.332031 157.949219 407.949219 83.332031 500 83.332031 C 592.050781 83.332031 666.667969 157.949219 666.667969 250 Z M 666.667969 250 "/>
<path style=" stroke:none;fill-rule:evenodd;fill:rgb(98.822021%,86.665344%,3.529358%);fill-opacity:1;" d="M 373.195312 208.28125 L 470.066406 208.28125 L 491.96875 140.867188 L 497.808594 158.847656 L 465.980469 256.808594 L 456.527344 249.941406 L 466.457031 219.386719 L 388.484375 219.386719 Z M 421.628906 357.347656 L 451.5625 265.21875 L 394.222656 223.554688 L 413.121094 223.554688 L 496.457031 284.101562 L 487.003906 290.964844 L 461.015625 272.085938 L 436.921875 346.242188 Z M 578.371094 357.347656 L 500 300.410156 L 442.65625 342.074219 L 448.5 324.097656 L 531.832031 263.550781 L 535.441406 274.664062 L 509.453125 293.542969 L 572.53125 339.371094 Z M 626.804688 208.28125 L 548.4375 265.21875 L 570.339844 332.628906 L 555.046875 321.519531 L 523.21875 223.554688 L 534.898438 223.554688 L 544.824219 254.109375 L 607.90625 208.28125 Z M 500 116.148438 L 529.933594 208.28125 L 600.8125 208.28125 L 585.523438 219.386719 L 482.519531 219.386719 L 486.128906 208.28125 L 518.253906 208.28125 L 494.15625 134.128906 Z M 500 116.148438 "/>
<path style=" stroke:none;fill-rule:evenodd;fill:rgb(0%,0%,0%);fill-opacity:1;" d="M 500 311.113281 L 500 383.332031 Z M 441.878906 268.882812 L 373.195312 291.203125 Z M 464.078125 200.5625 L 421.632812 142.128906 Z M 535.921875 200.5625 L 578.371094 142.128906 Z M 558.121094 268.882812 L 626.804688 291.203125 Z M 558.121094 268.882812 "/>
<path style="fill:none;stroke-width:5.555554;stroke-linecap:butt;stroke-linejoin:miter;stroke:rgb(98.822021%,86.665344%,3.529358%);stroke-opacity:1;stroke-miterlimit:4;" d="M 500 311.113281 L 500 383.332031 "/>
<path style="fill:none;stroke-width:5.555554;stroke-linecap:butt;stroke-linejoin:miter;stroke:rgb(98.822021%,86.665344%,3.529358%);stroke-opacity:1;stroke-miterlimit:4;" d="M 441.878906 268.882812 L 373.195312 291.203125 "/>
<path style="fill:none;stroke-width:5.555554;stroke-linecap:butt;stroke-linejoin:miter;stroke:rgb(98.822021%,86.665344%,3.529358%);stroke-opacity:1;stroke-miterlimit:4;" d="M 464.078125 200.5625 L 421.632812 142.128906 "/>
<path style="fill:none;stroke-width:5.555554;stroke-linecap:butt;stroke-linejoin:miter;stroke:rgb(98.822021%,86.665344%,3.529358%);stroke-opacity:1;stroke-miterlimit:4;" d="M 535.921875 200.5625 L 578.371094 142.128906 "/>
<path style="fill:none;stroke-width:5.555554;stroke-linecap:butt;stroke-linejoin:miter;stroke:rgb(98.822021%,86.665344%,3.529358%);stroke-opacity:1;stroke-miterlimit:4;" d="M 558.121094 268.882812 L 626.804688 291.203125 Z M 558.121094 268.882812 "/>
</g>
</svg>
